T: Return To Miltown, The
M: 4/4
L: 1/8
K: Dmaj
D2AD EDDB,|C2EC FCEC|D2AD EDDB,|CDEG AEGE|D2AD EDDB,|C2EC FCEC|FAFD EzED|CDEG AEGE:||:GAde f2ed|cdef (3gag fe|dDGA f2ed|=cAGE ED~D2|GAde f2ed|cdef (3gag fe|fafd ezed|=cAGE
